static/fa/svgs/solid/person-breastfeeding.svg

<svg xmlns="http://www.w3.org/2000/svg" viewBox="0 0 448 512"><!--! Font Awesome Free 6.1.1 by @fontawesome - https://fontawesome.com License - https://fontawesome.com/license/free (Icons: CC BY 4.0, Fonts: SIL OFL 1.1, Code: MIT License) Copyright 2022 Fonticons, Inc.--><path d="M144 80c0-44.18 35.8-80 80-80s80 35.82 80 80c0 44.2-35.8 80-80 80s-80-35.8-80-80zm292.8 302.8-63.3 78.3c-16.6 21.6-46.8 24.9-67.5 8.4-17.6-14.1-22.7-38.2-13.5-57.8l-.8-.1c-38.9-5.5-74.3-25.1-99.7-54.8V320c0-17.7-14.3-32-32-32s-32 14.3-32 32v48c0 .8 0 1.6.1 2.4l101.4 50.7c23.7 11.8 33.3 40.7 21.4 64.4-11.8 23.7-40.7 33.3-64.4 21.4L27.21 427.3c-1.1-.6-2.19-1.1-3.26-1.8-4.91-2.8-9.16-6.4-12.65-11.4-4.568-4.6-7.808-10.8-9.617-17.5-3.259-12-1.864-25.2 4.776-36.7.639-1.1 1.317-2.1 2.03-3.2L75.56 256.1c26.74-40 71.64-64.1 119.84-64.1h75.2c46.5 0 90.1 22.5 117.2 60.3l50.7 70.9c2.2 3 4 6.2 5.4 9.5 3 6.6 4.3 13.7 3.2 20.8.6 10.6-3.3 21-10.3 29.3zM276 288c-24.3 0-44 19.7-44 44s19.7 44 44 44 44-19.7 44-44-19.7-44-44-44z"/></svg>

<svg xmlns="http://www.w3.org/2000/svg" viewBox="0 0 448 512"><!--! Font Awesome Free 6.1.1 by @fontawesome - https://fontawesome.com License - https://fontawesome.com/license/free (Icons: CC BY 4.0, Fonts: SIL OFL 1.1, Code: MIT License) Copyright 2022 Fonticons, Inc. --><path d="M144 80C144 35.82 179.8 0 224 0C268.2 0 304 35.82 304 80C304 124.2 268.2 160 224 160C179.8 160 144 124.2 144 80zM436.8 382.8L373.5 461.1C356.9 482.7 326.7 486 306 469.5C288.4 455.4 283.3 431.3 292.5 411.7L291.7 411.6C252.8 406.1 217.4 386.5 192 356.8V320C192 302.3 177.7 288 160 288C142.3 288 128 302.3 128 320V368C128 368.8 128 369.6 128.1 370.4L229.5 421.1C253.2 432.9 262.8 461.8 250.9 485.5C239.1 509.2 210.2 518.8 186.5 506.9L27.21 427.3C26.11 426.7 25.02 426.2 23.95 425.5C19.04 422.7 14.79 419.1 11.3 414.1C6.732 409.5 3.492 403.3 1.683 396.6C-1.576 384.6-.1811 371.4 6.459 359.9C7.098 358.8 7.776 357.8 8.489 356.7L75.56 256.1C102.3 216.1 147.2 192 195.4 192H270.6C317.1 192 360.7 214.5 387.8 252.3L438.5 323.2C440.7 326.2 442.5 329.4 443.9 332.7C446.9 339.3 448.2 346.4 447.1 353.5C447.7 364.1 443.8 374.5 436.8 382.8V382.8zM276 288C251.7 288 232 307.7 232 332C232 356.3 251.7 376 276 376C300.3 376 320 356.3 320 332C320 307.7 300.3 288 276 288z"/></svg>
